X:1
T:Premiere Arabesque
T:Première Arabesque
T:Claude Debussy L. 66, No. 1     
C:Claude Debussy
%%score { ( 1 3 ) | ( 2 4 ) }
L:1/8
Q:1/4=104
M:4/4
K:E
V:1 treble nm="Piano" snm="Pno."
V:3 treble 
V:2 treble 
V:4 treble 
V:1
"^Andantino con moto"!p! x2!p! (3c[Q:1/4=130]ef (3gdB x2 | x2 (3Acd (3eBG[Q:1/4=104] x2 | %2
[Q:1/4=130] z2!<(! c2 f2 c2-!<)! |!mp! c2!<(! c2 f2 a2-!<)! | %4
!mf! a2[Q:1/4=104]"^Rit."!>(! a4-[Q:1/4=36] (3ag!>)!!pp!!tenuto!f[Q:1/4=92] | %5
[Q:1/4=130]"^a Tempo"!pp! z2 (3efc (3eBc (3GBF |!>(! (3GEG D4!>)!!pp! C2 | %7
 B, z!pp! (3efc (3eBc (3GBF |!>(! (3GEG D4!>)!!pp! C2 |!pp! (3B,A,B, C2-"_cresc." CEDE | C2 G4 E2 | %11
 (3DCD E2 EGFG | E2 c4[Q:1/4=140]"^Stringendo" (3^AcA | G2 e4 (3cec[Q:1/4=150] | %14
[Q:1/4=160] g3 f[Q:1/4=150] g3 f | %15
!mf![Q:1/4=130]"^Rit." g3!>(! f[Q:1/4=80] !tenuto!g !tenuto!f2!>)!!pp! !tenuto!g | %16
!p![Q:1/4=130] =a4 g4 | f4 e4 |!<(! d4 e2 g!<)!!mp!b |!>(! d4- d!>)!!p!ceg | B4- BAce | %21
 G4[Q:1/4=100]"^Rit." (3z Ac (3egf |[Q:1/4=80] d2 G2[Q:1/4=130]"^a Tempo" z FAc | %23
 E4[Q:1/4=100]"^Rit." (3z FA (3ce=d |[Q:1/4=80] G2 F4 =D2 |[K:bass][Q:1/4=130]"^a Tempo" C8- | %26
!p![Q:1/4=100] C2 C2 E2 C2 |[K:treble][Q:1/4=130] F8- | %28
!p! F2[Q:1/4=150]"^Poco mosso""_cresc." F2 A2 F2 | B2 G2 B2 G2 |!mp! [Ac]8- | %31
!<(! [Ac]2[Q:1/4=130] [FA]2 [GB]2 [Ac]2!<)! |!mf![Q:1/4=140] [Ac]8- | [Ac]2!p! A2 B2!<(! c2 | %34
 d2 e2 f2 g2 |[Q:1/4=130] a2!<)!!mf![Q:1/4=120] b2[Q:1/4=110] c'2[Q:1/4=100] d'2 | %36
[Q:1/4=92]!p! f'4[Q:1/4=80]!pp! e'4 |!p![Q:1/4=60] e8-!pp! || %38
[K:A][Q:1/4=80]"^Tempo rubato"!p! (3ede c2-[Q:1/4=120] c!<(!BBc!<)! |!mp![Q:1/4=80] A2!p! F4 G2 | %40
!<(! FE!<)!!mf!!>(! f4 e2!>)! |!p!!<(! FE!<)! g2-[Q:1/4=120]!>(! gbaf!>)! | %42
!p![Q:1/4=80] (3ede c2-[Q:1/4=120] cBBc |[Q:1/4=80] A2!<(! F2-[Q:1/4=120] FFF!<)!!mp!G | %44
[Q:1/4=80] (3F!>(!EB,!p! C4!>)! [CE]2 |[Q:1/4=72] [B,E]6 z2 | %46
[K:bass]!p![Q:1/4=138]"^Mosso" (3D,F,A, (3CB,A,"_cresc." (3G,B,D (3FED | %47
[K:treble] (3CEG (3BAG (3FAc (3edc | (3Bdf!f! a2-!mf! a!f!gfe | %49
 fedc[Q:1/4=100]"^Rit."!>(! dcBA!>)! | %50
[K:bass]!p![Q:1/4=138]"^Mosso" (3D,F,A, (3CB,A,"_cresc." (3G,B,D (3FED | %51
[K:treble] (3CEG (3BAG (3FAc (3ed!f!c |!p!!<(! (3Bdf!<)!!f! a2-!mp! a!f!gfg | %53
!p!!<(! (3Bdf!<)!!f! a2-!mp! a!f![Q:1/4=100]gfg | %54
!p![Q:1/4=80]"^a Tempo" (3ede c2-[Q:1/4=120] cBBc |[Q:1/4=80] A2 F4 G2 | %56
!<(! FE!<)!!mf! f4!>(! e2!>)! |!<(! FE g2-!<)! g!>(!!tenuto!b!tenuto!a!tenuto!f!>)! | %58
!p! (3ede c2-[Q:1/4=120] cBBc |[Q:1/4=80] A2 G2-[Q:1/4=120] GFF!mp!G | %60
[Q:1/4=80] (3FEB,!p! [A,C]4 [A,CE]2 |[Q:1/4=72] [B,E]6 z2 | %62
!f![Q:1/4=120]"^Risoluto" (3=G=FG [A,=CE]4 D2 | .=C2 G,4 C2 | D2 [=C=F]2 [C=G]2 A=c | %65
[Q:1/4=100] [Bd]4!mp!!>(! =G4!>)! |!p![Q:1/4=100]"^Rit." (3=g=fg e4 d2 | e4 =f4 | %68
[Q:1/4=90] (3=g=fg e4"_dim." g2 |[Q:1/4=80] (3^g^fg e4!pp! g2 || %70
[K:E]!p![Q:1/4=130]"^Tempo I" a4 g4 | f4 e4 | z2!<(! c2 f2 c2-!<)! |!mp! c2!<(! c2 f2 a2-!<)! | %74
!mf! a2[Q:1/4=104]"^Rit."!>(! a4-[Q:1/4=36] (3ag!>)!!pp!!tenuto!f[Q:1/4=92] | %75
!pp![Q:1/4=130]"^a Tempo" z2 (3efc (3eBc (3GBF |!>(! (3GEG D4!>)!!pp! C2 | %77
 B, z!pp! (3efc (3eBc (3GBF |!>(! (3GEG D4!>)!!pp! C2 |!pp! (3B,A,B, C2-"_cresc." CEDE | C2 G4 E2 | %81
 (3DCD E2 EGFG | E2 c4[Q:1/4=140]"^Stringendo" (3^AcA | G2 e4 (3cec[Q:1/4=150] | %84
[Q:1/4=160] g3 f[Q:1/4=150] g3 f | %85
!mf![Q:1/4=130]"^Rit." g3!>(! f[Q:1/4=80] !tenuto!g !tenuto!f2!>)!!pp! !tenuto!g | %86
[Q:1/4=130]"^a Tempo"!p! =a4 g4 | f4 e4 | a2 bc' agag- | g2 f2- f2 e2- | e=def dcdc- | c2 B4 A2- | %92
 AGAG cA F2- ||[M:2/4] FEFE ||[M:4/4][Q:1/4=150]!p!!<(! A8 | %95
 (3ab!<)!c'!mf! (3e'!>(!c'b (3aec (3BAE!>)! |!p![Q:1/4=140] G8 |!p![Q:1/4=130] F8[Q:1/4=100] | %98
!pp![Q:1/4=130] E2!p! (3e'f'c' (3e'bc' (3gef | (3geg d4 c2 | B2!pp! (3efc (3eBc (3GBF | %101
 (3GEG D4 C2 | %102
 (3z B,[I:staff +1]E,[I:staff -1] (3z C[I:staff +1]G,[I:staff -1] (3z E[I:staff +1]B,[I:staff -1] (3z FC | %103
 (3z!<(! BE (3z cG (3z eB (3z fc!<)! | %104
 (3z!mf! b!>(!e[Q:1/4=100] (3z c'g (3z e'[Q:1/4=70]b (3z f'c'!>)! | %105
!pp![Q:1/4=60] !tenuto![e'g']2 !tenuto![e'g']4[Q:1/4=48] !tenuto![e'g']2 | E2 z2 z4 |] %107
V:2
!ped! (3CEA x2!ped-up!!ped! x2 (3GDB,!ped-up! |!ped! (3A,CF x2!ped-up!!ped! x2 (3EB,G,!ped-up! | %2
[K:bass]!ped! (3F,A,C- C2!ped-up!!ped! (3E,A,C- C2!ped-up! | %3
!ped! (3D,A,C- C2!ped-up!!ped! (3C,A,E- E2!ped-up! | %4
!ped! (3B,,F,A,!ped-up!!ped! (3C[K:treble]DF (3Acd!ped-up!!ped! (3cBA!ped-up! | %5
[K:bass]!pp!!ped! !>!E,,B,,E,G,!ped-up!!ped! B,G,!ped-up!!ped!E,B,,!ped-up! | %6
!ped! !>!E,,C,!ped-up!!ped!E,G, CG,!ped-up!E,C, | %7
!ped! !>!E,,B,,E,G,!ped-up!!ped! B,G,!ped-up!!ped!E,B,,!ped-up! | %8
!ped! !>!E,,C,!ped-up!!ped!E,G, CG,!ped-up!E,C, | %9
"^poco a poco"!ped! !>!F,,C,!ped-up!E,F,!ped!"_cresc." A,F,E,C,!ped-up! | %10
!ped! !>!G,,C,!ped-up!!ped!E,G, B,G,!ped-up!E,C, |!ped! A,,E,!ped-up!F,A,!ped! CA,F,E,!ped-up! | %12
!ped! ^A,,E,G,C!ped-up!!ped! C,F,^A,E!ped-up! |!ped! E,^A,CG!ped-up!!ped! F,CE^A!ped-up! | %14
[K:treble]!ped! ^A,EGc!ped-up!!ped! CF^Ae!ped-up! | %15
!mp!!ped! ^A,!>(!EGc!ped-up!!ped! CF^A!>)!!pp!e!ped-up! | %16
!pp!!ped! (3CE=A x2!ped-up!!ped! x2 (3GDB,!ped-up! | %17
!ped! (3A,CF x2!ped-up!!ped! x2 (3EB,G,!ped-up! | %18
!ped!!<(! (3^^F,CD (3^ADC!ped! (3G,!ped-up!CE!<)!!p! (3BEC | %19
!ped!!>(! (3^^F,CD (3^ADC!>)![K:bass]!pp!!ped-up!!ped! (3E,=A,C (3GCA,!ped-up! | %20
!ped! (3D,A,B, (3FB,A,!ped-up!!ped! (3C,F,A, (3EA,F,!ped-up! | %21
!ped! (3^B,,F,G, (3DG,F,!ped-up!!ped! (3C,F,A, (3EA,F,!ped-up! | %22
!ped! (3^B,,F,G, (3DG,F,!ped-up!!ped! (3=B,,F,G, (3=DA,F,!ped-up! | %23
!ped! (3B,,E,G, (3=DG,E,!ped-up!!ped! (3B,,F,A, (3DA,F,!ped-up! | %24
!ped! (3B,,E,G,!ped-up!!ped! (3=DG,E, (3E,,B,,E, (3F,G,B,!ped-up! | %25
!pp!!ped! (3!>!A,,,A,,-[I:staff -1]E,[I:staff +1] A,,6-!ped-up! |!ped! A,,8!ped-up! | %27
!ped! =D,,A,,!ped-up!!ped! F,6!ped-up! |!ped! B,,,B,,F,A,!ped-up!!ped! B,2 z2!ped-up! | %29
!ped! G,,,G,,E,G,!ped-up!!ped! B,2 z2!ped-up! | %30
!p!!ped! (3F,,,F,,C, (3E,F,A, (3C[I:staff -1]EF (3AGF!ped-up! |[I:staff +1] x4 D2 C2 | %32
!mp!!ped! (3F,,,F,,C, (3E,F,A, (3C[I:staff -1]EF (3AGF!ped-up! | %33
 (E4!ped!!ped-up!!ped![I:staff +1] F,4)!ped-up! |!ped! B,,2 F,2 A,2 B,2!ped-up! | %35
!ped! D2[K:treble] F2!>(! A2 B2!ped-up!!>)! |[K:bass]!pp!!ped![I:staff -1] [gb]8!ped-up! | %37
!ped![I:staff +1] z4 E4!ped-up! ||[K:A] F6 D2 | [F,C]2!ped! [B,,A,]6!ped-up! | %40
 [E,,B,,]2!mp!!ped! F4!p! E2!ped-up! | [A,,E,]2!mp!!ped! [E,A,CE]6!ped-up! | F6!ped!!pp! =F2 | %43
 [F,C]2!ped! [B,,A,]4!ped-up! [A,,^D,]2 | [G,,E,]2 [F,,E,]4 [B,,,B,,]2 | %45
!ped! [E,,B,,]4 E,,2!ped-up! E,2 |!ped! z2 F,,4!ped-up!!ped! E,,2!ped-up! | %47
!ped! z2 [A,,,A,,]4!ped-up!!ped! [D,,D,]2!ped-up! | %48
!ped! z2 [B,,,B,,]2 [F,B,DF]2!ped-up!!ped! [E,,E,]2!ped-up! | %49
!ped! [A,,,A,,]2 E,2!ped-up!!ped! FEDC!ped-up! |!ped! z2 F,,4!ped-up!!ped! E,,2!ped-up! | %51
!ped! z2 [A,,,A,,]4!ped-up!!ped! [D,,D,]2!ped-up! |!ped! z2 [B,,,B,,] z [F,B,DF]4!ped-up! | %53
!ped! z2 [B,,,B,,] z [F,B,DF]4!ped-up! | D8 | [A,C]4 [B,,A,]4 | %56
 [E,,B,,]2!mp!!ped! F4!p! E2!ped-up! | [A,,E,]2!mp!!ped! [E,A,CE]6!ped-up! | %58
 F6!ped!!pp! =F2!ped-up! | [F,C]2!ped! [B,,A,]4!ped-up! [A,,^D,]2 | [G,,E,]2 [F,,E,]4 [B,,,B,,]2 | %61
!ped! [E,,B,,]4 E,,2!ped-up! !tenuto!E,2 |!mf! [E,,=C,]2 [=F,,C,]4 [=F,B,]2 | %63
 .[E,A,]2 [D,=F,]4 [E,A,]2 | [=F,B,]2 A,2 =G,2 x2 |!ped! =G,,,=G,,D,=F, =G,B,D!tenuto!=F!ped-up! | %66
[K:treble]!ped! [E=G]4!ped-up! [=FA]4 |!ped! [=G_B]4 [=FA]4!ped-up! | =G8 | ^G8 || %70
[K:E]!pp!!ped! (3CEA x2!ped-up!!ped! x2 (3GDB,!ped-up! | %71
!ped! (3A,CF x2!ped-up!!ped! x2 (3EB,G,!ped-up! | %72
[K:bass]!ped! (3F,A,C- C2!ped-up!!ped! (3E,A,C- C2!ped-up! | %73
!ped! (3D,A,C- C2!ped-up!!ped! (3C,A,E- E2!ped-up! | %74
!ped! (3!>!B,,F,A,!ped-up!!ped! (3C[K:treble]DF (3Acd!ped-up!!ped! (3cBA!ped-up! | %75
[K:bass]!pp!!ped! !>!E,,B,,E,G,!ped-up!!ped! B,G,!ped-up!!ped!E,B,,!ped-up! | %76
!ped! !>!E,,C,!ped-up!!ped!E,G, CG,!ped-up!E,C, | %77
!ped! !>!E,,B,,E,G,!ped-up!!ped! B,G,!ped-up!!ped!E,B,,!ped-up! | %78
!ped! !>!E,,C,!ped-up!!ped!E,G, CG,!ped-up!E,C, | %79
"^poco a poco"!ped! !>!F,,C,!ped-up!E,F,!ped!"_cresc." A,F,E,C,!ped-up! | %80
!ped! !>!G,,C,!ped-up!!ped!E,G, B,G,!ped-up!E,C, |!ped! A,,E,!ped-up!F,A,!ped! CA,F,E,!ped-up! | %82
!ped! ^A,,E,G,C!ped-up!!ped! C,F,^A,E!ped-up! |!ped! E,^A,CG!ped-up!!ped! F,CE^A!ped-up! | %84
[K:treble]!ped! ^A,EGc!ped-up!!ped! CF^Ae!ped-up! | %85
!mp!!ped! ^A,!>(!EGc!ped-up!!ped! CF^A!>)!!pp!e!ped-up! | %86
!pp!!ped! (3CE=A x2!ped-up!!ped! x2 (3GDB,!ped-up! | %87
!ped! (3A,CF x2!ped-up!!ped! x2 (3EB,G,!ped-up! |!ped! (3CEA (3cAE!ped! (3B,!ped-up!DG (3BGD | %89
!ped! (3A,CF (3AFC!ped! (3G,!ped-up!B,E (3GEB,!ped-up! | %90
[K:bass]!ped! (3F,A,=D (3FDA,!ped-up!!ped! (3E,G,C (3ECG,!ped-up! | %91
!ped! (3=D,F,B, (3=DB,F,!ped-up!!ped! (3C,E,A, (3CA,E,!ped-up! | %92
!ped! (3B,,^E,G, (3B,G,E,!ped-up!!ped! (3A,,C,F, (3A,F,C,!ped-up! || %93
[M:2/4]!ped! (3G,,B,,E, (3G,E,B,, || x4!ped-up! %94
[M:4/4]!ped! (3F,,C,E, (3F,A,B,!ped-up! (3C[I:staff -1]EA (3Bce |[I:staff +1] x8 | %96
!pp!!ped! (3B,,,"^dim."B,,D, (3G,B,[I:staff -1]D (3GBd (3gbc!ped-up! | %97
!ped![I:staff +1] (3B,,,B,,D, (3A,B,[I:staff -1]D (3ABd (3ab!pp!!tenuto!B!ped-up! | %98
!ped![I:staff +1] E,,B,,!pp!E,G, B,G,E,B,,!ped-up! |!ped! E,,C,E,G, CG,E,C,!ped-up! | %100
!pp!!ped! E,,B,,E,G, B,G,E,B,,!ped-up! |!ped! E,,C,E,G, CG,E,C,!ped-up! | %102
!ped! !>!E,,2 !>!B,,2 !>!E,2 !>!G,2!ped-up! |!ped! E,2 B,2 E2 G2!ped-up! | %104
[K:treble]!ped! E2 B2 e2 g2!ped-up! |!ped! !tenuto![eb]2 !tenuto![eb]4 !tenuto![eb]2!ped-up! | %106
[K:bass]!ped! [E,,E,]2 z2 z4!ped-up! |] %107
V:3
 x8 | x8 | x2 (3cFA- A2 (3cFA- | A2 (3cFA- A2 (3aAc | x8 | x8 | x8 | x8 | x8 | x8 | x8 | x8 | x8 | %13
 x8 | x8 | x8 | x8 | x8 | x8 | x8 | x8 | x8 | x8 | x8 | x8 | %25
[K:bass] z2!pp! (3=G,A,B, (3A,E,G, (3A,B,A, | =G,8 |[K:treble] z2!pp! (3A,B,C (3B,A,B, (3CB,A, | %28
 C4 ^D4- | D4 E4 | x8 | E4 x4 | x8 | x2 (3FCE (3GDF (3AEG | (3BFA (3cGB (3dAc (3eBd | %35
 (3fce (3g!>(!df (3aeg (3bf!p!a!>)! | x8 | x8 ||[K:A] A6 G2 | F2 ^D6 | [G,=D]2 [Bd]6 | %41
 [A,C]2 [Ac]6 | A6 G2 | E4 ^D2 C2 | B,2 A,4 A,2 | A,2!p! G,4 x2 |[K:bass] x8 |[K:treble] x8 | %48
 x4 [Bd]2 [Gd]2 | [Ac]4 A4 |[K:bass] x8 |[K:treble] x8 | x4 [Bd]4 | x4 [Bd]4 | G4 F2 =F2 | E4 ^D4 | %56
 [G,=D]2 [Bd]6 | [A,C]2 [Ac]6 | A6 G2 | E4 ^D2 C2 | B,2 x2 x4 | A,2!p! G,4 x2 | [=G,=C]2 x2 x4 | %63
 x8 | x6 [=C=F]2 | =F8 | =c8- | c8 | =c8- | c4 ^c4 ||[K:E] x2 (3cef (3gdB x2 | x2 (3Acd (3eBG x2 | %72
 x2 (3cFA- A2 (3cFA- | A2 (3cFA- A2 (3aAc | x8 | x8 | x8 | x8 | x8 | x8 | x8 | x8 | x8 | x8 | x8 | %85
 x8 | x8 | x8 | z2 e2 z2 d2 | c4 B4 | z2 A2 z2 G2 | F4 E4 | =D4 C4 ||[M:2/4] B,4 ||[M:4/4] A8 | %95
 x8 | x8 | x8 | x8 | x8 | x8 | x8 | x8 | x8 | x8 | x8 | x8 |] %107
V:4
 x8 | x8 |[K:bass] F,4 E,4 | D,4 C,4 | x8/3[K:treble] x16/3 |[K:bass] x8 | x8 | x8 | x8 | x8 | x8 | %11
 x8 | x8 | x8 |[K:treble] x8 | x8 | x2[I:staff -1] (3cef (3gdB[I:staff +1] x2 | %17
 x2[I:staff -1] (3Acd (3eBG[I:staff +1] x2 | x8 | x4[K:bass] x4 | x8 | x8 | x8 | x8 | x8 | x8 | %26
 x8 | x8 | x8 | x8 | x8 | x8 | x8 | x8 | x8 | x2[K:treble] x6 | %36
[K:bass] E,,,E,,B,,!<(!E, G,B,E!<)!!p!G | x8 ||[K:A] B,C D4 E,2 | x8 | x2 [G,D]6 | x8 | B,C D6 | %43
 x8 | x8 | x8 | x8 | x8 | x8 | x8 | x8 | x8 | x8 | x8 | E,4 F,2 G,2 | x8 | x2 [G,D]6 | x8 | %58
 B,C D6 | x8 | x8 | x8 | x6 =G,,2 | .A,,2 B,,4 A,,2 | =G,,2 =F,,2 E,,2 [D,,D,]2 | x8 | %66
[K:treble] x8 | x8 | E8- | E6- E!tenuto!^D ||[K:E] x8 | x8 |[K:bass] F,4 E,4 | !>!D,4 !>!C,4 | %74
 x8/3[K:treble] x16/3 |[K:bass] x8 | x8 | x8 | x8 | x8 | x8 | x8 | x8 | x8 |[K:treble] x8 | x8 | %86
 x2[I:staff -1] (3cef (3gdB[I:staff +1] x2 | x2[I:staff -1] (3Acd (3eBG[I:staff +1] x2 | x8 | x8 | %90
[K:bass] F,4 E,4 | =D,4 C,4 | B,,4 A,,4 ||[M:2/4] G,,4 ||[M:4/4] x8 | x8 | x8 | x8 | x8 | x8 | x8 | %101
 x8 | x8 | x8 |[K:treble] x8 | x8 |[K:bass] x8 |] %107

